X: 346
T: Fun fangshao
%%abc-version 2.0
%%abcx-abcm2ps-target-version 5.9.1 (29 Sep 2008)
%%abc-creator hum2abc beta
%%abcx-conversion-date 2013/10/02 07:52:30
%%abc-edited-by Helmut Schaffrath
%%humdrum-veritas 2437599425
%%humdrum-veritas-data 3194365896
%%continueall 1
%%barnumbers 0
L: 1/16
M: 2/4
K: A
B2 B2 e2 f2 [I:setbarnb 1]| 
e2 d c2< B2 c | 
e2 e G B2 c B | 
A2 G FE4 | 
B2> F2 G2 c2 | 
B2 F A2< E2 F | 
A2 A G B2 F A | 
E8 |]  



